X: 20590
T: John O'Groat's House
R: reel
M: 4/4
K: Amixolydian
|:Adde ffed|cAeA cdeA|Adde fded|Adcd ecd2:|
agfa gbag|fdad cdea|agfa gbag|fded cdd2|
agfa gbag|fdad cdec|Adde fded|Adcd ecd2||

